X:32
T:Reel de Port Joli
R:reel
M:4/4
L:1/8
K:D
d2e2 |: fdec dAFA | GABG E2ed | c2B2 Acec | defd A2de |
fdec dAFA | GABG E2ed | c2B2 Aceg | fdec d2AG ::
FAdA FAdA | GBAG B2AG | FAdA FAdf | e2ce Aece |
FADA FADA | GBAG B2AG | FAdf gece | dfec d4 :|
